<?xml version="1.0" encoding="UTF-8"?>
<map version="1.10" tiledversion="1.11.2" orientation="orthogonal" renderorder="right-down" width="40" height="40" tilewidth="16" tileheight="16" infinite="0" nextlayerid="8" nextobjectid="1">
 <tileset firstgid="1" source="spr_grass_tileset.tsx"/>
 <layer id="1" name="Ground" width="40" height="40">
  <data encoding="csv">
160,160,160,160,160,160,160,160,160,160,160,160,160,160,160,160,160,160,160,160,160,160,160,160,160,160,160,160,160,160,160,160,160,160,160,160,160,160,160,160,
160,129,129,129,129,129,129,129,129,129,129,129,129,129,129,129,129,129,129,129,129,129,129,129,129,129,129,129,129,129,129,129,129,129,129,129,129,129,129,160,
160,129,100,159,159,159,159,159,159,159,159,159,159,159,159,159,159,159,159,159,159,159,159,159,159,94,159,159,159,159,159,159,159,159,159,159,159,97,129,160,
160,129,130,160,160,123,160,94,160,160,160,94,94,160,160,160,160,93,160,160,160,94,160,160,160,160,160,160,160,160,160,160,93,160,160,94,160,127,129,160,
160,129,130,160,94,160,160,160,160,160,160,160,160,160,160,160,160,160,160,160,160,160,160,160,160,160,160,160,160,160,160,160,160,160,160,160,123,127,129,160,
160,129,130,160,160,160,160,160,160,160,160,160,94,160,160,160,160,160,160,123,160,160,160,160,160,160,160,123,160,160,160,160,94,160,160,160,160,127,129,160,
160,129,130,160,160,160,160,160,160,160,160,160,94,160,160,160,160,160,94,160,160,160,160,94,160,160,94,160,160,160,94,160,160,160,160,160,160,127,129,160,
160,129,130,160,160,160,160,94,94,160,160,160,94,160,160,94,160,160,160,160,160,93,160,160,160,160,160,160,160,160,160,160,160,160,94,94,160,127,129,160,
160,129,130,160,160,160,160,160,160,160,160,160,160,160,160,160,160,160,160,160,160,160,94,160,94,160,124,124,160,160,160,160,160,160,160,160,124,127,129,160,
160,129,130,160,123,160,160,93,160,160,160,160,160,160,160,160,160,160,160,160,124,160,160,160,160,160,160,160,160,160,160,160,160,160,160,160,160,127,129,160,
160,129,130,160,160,94,160,160,160,160,377,378,378,378,378,378,378,378,378,381,377,378,378,378,378,378,378,378,378,381,160,160,160,160,94,160,160,94,129,160,
160,129,130,160,160,160,160,160,160,160,407,0,0,0,0,0,0,0,0,441,437,0,0,0,0,0,0,0,0,411,160,160,160,160,160,160,160,127,129,160,
160,129,130,160,160,160,123,160,160,160,407,0,0,0,0,0,0,0,0,441,437,0,0,0,0,0,0,0,0,411,94,160,160,160,123,160,160,127,129,160,
160,129,130,160,160,160,160,160,160,160,407,0,0,0,0,0,0,0,0,441,437,0,0,0,0,0,0,0,0,411,160,160,160,160,160,160,160,127,129,160,
160,129,130,160,160,160,93,160,160,160,407,0,124,0,0,0,0,0,0,441,437,0,0,0,0,0,0,0,0,411,160,160,160,160,94,160,160,127,129,160,
160,129,130,160,160,160,160,160,160,160,407,0,0,0,0,0,0,0,0,441,437,0,0,0,0,0,0,0,0,411,160,93,160,160,160,160,93,127,129,160,
160,129,94,94,160,160,160,160,123,94,407,0,0,0,0,0,0,0,0,441,437,0,0,0,0,0,0,0,0,411,160,160,160,160,160,160,160,127,129,160,
160,129,130,160,160,160,93,160,160,160,407,0,0,0,0,0,0,0,0,441,437,0,0,0,0,0,0,0,0,411,160,160,160,94,94,160,160,127,129,160,
160,129,130,123,160,160,160,160,160,160,407,0,0,0,0,0,0,0,0,441,437,0,0,0,0,0,0,0,0,411,160,160,160,160,160,160,160,127,129,160,
160,129,130,160,94,160,160,160,160,124,467,468,468,468,468,468,468,468,468,471,467,468,468,468,468,468,468,468,468,471,160,160,160,124,160,160,160,127,129,160,
160,129,130,160,124,160,160,160,160,160,377,378,378,378,378,378,378,378,378,381,377,378,378,378,378,378,378,378,378,381,93,160,160,160,160,160,160,127,129,160,
160,129,130,93,160,160,160,160,160,160,437,0,0,0,0,0,0,0,0,411,437,0,0,0,0,0,0,0,0,411,160,160,160,160,160,94,123,127,129,160,
160,129,130,160,160,160,160,160,93,160,437,0,0,0,0,0,0,0,0,411,437,0,0,0,0,0,0,0,0,411,160,160,94,160,94,160,160,127,129,160,
160,129,130,160,160,160,160,94,160,160,437,0,0,0,0,0,0,0,0,411,437,0,0,0,0,0,0,0,0,411,94,160,160,160,160,160,160,127,129,160,
160,129,130,160,160,160,124,160,160,160,437,0,0,0,0,0,0,0,0,411,437,0,0,0,0,0,0,0,0,411,160,160,160,160,160,160,94,127,129,160,
160,129,130,160,160,160,160,160,160,160,437,0,0,0,0,0,0,0,0,411,437,0,0,0,0,0,0,0,0,411,160,160,160,94,160,160,160,127,129,160,
160,129,130,160,160,94,160,160,160,160,437,0,0,0,0,0,0,0,0,411,437,0,0,0,0,0,0,0,0,411,160,160,160,160,160,160,160,127,129,160,
160,129,130,94,160,160,160,160,160,160,437,0,0,0,0,0,0,0,0,411,437,0,0,0,0,0,0,0,0,411,160,160,94,160,160,94,160,93,129,160,
160,129,130,160,160,160,93,160,160,160,437,0,0,0,0,0,0,0,0,411,437,0,0,0,0,0,0,0,0,411,160,160,160,160,160,160,160,127,129,160,
160,129,130,123,160,160,160,160,160,160,467,468,468,468,468,468,468,468,468,471,467,468,468,468,468,468,123,468,468,471,160,160,160,93,160,94,160,127,129,160,
160,129,130,160,160,160,197,250,250,250,250,200,94,160,160,160,123,160,160,160,160,160,160,160,160,160,160,160,160,160,160,94,160,160,160,160,160,127,129,160,
160,129,130,197,250,250,251,278,247,278,248,219,160,160,160,160,160,160,160,160,160,93,160,160,160,93,160,160,160,160,160,160,94,160,160,160,160,127,129,160,
160,129,250,251,278,278,278,277,278,278,278,219,160,93,160,160,160,94,160,160,94,160,160,160,160,160,160,160,160,160,160,160,160,94,160,160,160,127,129,160,
248,278,248,278,247,278,248,278,189,190,190,290,160,94,160,160,160,160,160,160,160,160,160,160,160,160,160,160,160,160,93,160,160,160,160,160,94,127,129,160,
278,278,278,278,189,289,191,247,249,250,200,160,160,160,160,160,160,160,93,160,160,160,160,93,160,160,160,197,198,198,200,160,160,160,160,160,160,127,129,160,
160,129,190,190,290,160,221,278,278,278,219,160,160,160,160,160,160,160,160,160,160,160,160,94,160,160,160,257,247,248,230,160,160,160,94,160,160,127,129,160,
160,129,130,160,160,160,287,190,191,277,219,160,160,123,93,160,94,160,160,160,160,94,160,160,160,160,160,257,277,277,230,160,160,160,160,94,160,127,129,160,
160,129,130,160,160,160,160,160,287,190,290,124,160,160,160,160,160,160,160,160,160,160,160,160,160,160,160,287,289,289,290,160,94,160,160,160,160,127,129,160,
160,129,129,129,129,129,129,129,129,129,129,129,129,129,129,129,129,129,129,129,129,129,129,129,129,129,129,129,129,129,129,129,129,129,129,129,129,129,129,160,
160,160,160,160,160,160,160,160,160,160,160,160,160,160,160,160,160,160,160,160,160,160,160,160,160,160,160,160,160,160,160,160,160,160,160,160,160,160,160,160
</data>
 </layer>
 <layer id="2" name="Objects" width="40" height="40">
  <data encoding="csv">
160,160,160,160,160,160,160,160,160,160,160,160,160,160,160,160,160,160,160,160,160,160,160,160,160,160,160,160,160,160,160,160,160,160,160,160,160,160,160,160,
160,182,183,183,183,183,183,183,183,183,183,183,183,183,183,183,183,183,183,183,183,183,183,183,183,183,183,183,183,183,183,183,183,183,183,183,183,183,186,160,
160,212,0,0,0,0,0,0,0,0,0,0,0,0,0,0,0,0,0,0,0,0,0,0,0,0,0,0,0,0,0,0,0,0,0,0,0,0,216,160,
160,212,0,0,0,0,0,0,0,0,0,0,0,0,0,0,0,0,0,0,0,0,0,0,0,0,0,0,0,0,0,0,0,0,0,0,0,0,216,160,
160,212,0,0,0,0,0,0,0,160,0,0,0,0,0,0,0,0,0,0,0,160,0,0,0,0,0,0,0,160,0,0,0,0,0,0,0,0,216,160,
160,212,0,160,0,0,0,0,0,0,0,0,0,0,160,0,0,0,0,0,0,0,0,0,0,160,0,0,0,0,0,0,0,0,0,0,0,0,216,160,
160,212,0,0,0,0,0,0,0,0,0,0,0,0,0,0,0,0,0,0,0,0,0,0,0,0,0,0,0,0,0,0,0,0,0,160,0,0,216,160,
160,212,725,726,0,0,160,0,0,0,0,0,0,0,0,0,0,160,0,0,0,0,0,0,0,0,0,0,0,0,0,0,160,0,0,0,0,0,216,160,
160,212,0,0,0,0,0,0,0,0,0,160,0,0,0,0,0,0,0,0,0,0,0,0,0,0,0,0,0,160,0,0,0,0,0,0,0,0,216,160,
160,212,0,0,0,0,0,0,0,0,0,0,0,0,160,0,0,0,722,0,0,0,0,160,0,0,0,0,0,0,0,0,0,725,726,0,0,0,216,160,
160,212,0,0,0,0,0,0,0,0,0,0,0,0,0,0,0,0,0,0,0,0,0,0,0,0,0,0,0,0,0,0,0,0,0,0,0,0,216,160,
160,212,0,160,0,0,0,0,0,0,0,409,409,409,409,409,409,409,409,0,0,409,409,409,409,409,409,409,409,0,0,0,0,0,0,0,0,0,216,160,
160,212,0,0,0,0,0,0,160,0,0,409,409,409,409,409,409,409,409,0,0,409,409,409,409,409,409,409,409,0,0,160,0,0,0,0,160,0,216,160,
160,212,0,0,0,0,0,0,0,0,0,409,409,409,409,409,409,409,409,0,0,409,409,409,409,409,409,409,409,0,0,0,0,0,0,0,0,0,216,160,
160,212,0,0,0,0,0,0,0,0,0,409,409,409,409,409,409,409,409,0,0,409,409,409,409,409,409,409,409,0,0,0,0,0,0,0,0,0,216,160,
160,212,0,0,0,0,0,0,0,0,0,409,409,409,409,409,409,409,409,0,0,409,409,409,409,409,409,409,409,0,0,0,0,0,160,0,0,0,216,160,
160,212,0,0,160,0,0,0,0,160,0,409,409,409,409,409,409,409,409,0,0,409,409,409,409,409,409,409,409,0,0,0,0,0,0,0,0,0,216,160,
160,212,0,0,0,0,0,0,0,0,0,409,409,409,409,409,409,409,409,0,0,409,409,409,409,409,409,409,409,0,0,0,0,0,0,0,0,0,216,160,
160,212,0,0,0,0,0,0,0,0,0,409,409,409,409,409,409,409,409,0,0,409,409,409,409,409,409,409,409,0,0,160,0,0,0,0,0,0,216,160,
160,212,0,0,0,0,0,0,0,0,0,0,0,0,0,0,0,0,0,0,0,0,0,0,0,160,0,0,0,0,0,0,0,0,0,160,0,0,216,160,
160,212,0,0,0,0,0,160,0,0,0,0,0,0,0,0,0,0,0,0,0,0,0,0,0,0,0,0,0,0,0,0,0,0,0,0,0,0,216,160,
160,212,0,0,0,0,0,0,0,0,0,409,409,409,409,409,409,409,409,0,0,409,409,409,409,409,409,409,409,0,0,0,0,0,0,0,0,0,216,160,
160,212,0,0,0,0,0,0,0,0,0,409,409,409,409,409,409,409,409,0,0,409,409,409,409,409,409,409,409,0,0,0,0,0,0,0,0,0,216,160,
160,212,0,0,0,0,0,0,0,0,0,409,409,409,409,409,409,409,409,0,0,409,409,409,409,409,409,409,409,0,0,0,160,0,0,0,0,0,216,160,
160,212,0,0,0,0,0,0,0,0,0,409,409,409,409,409,409,409,409,0,0,409,409,409,409,409,409,409,409,0,0,0,0,0,0,0,0,0,216,160,
160,212,0,0,160,0,0,0,0,0,0,409,409,409,409,409,409,409,409,0,0,409,409,409,409,409,409,409,409,0,0,0,0,0,0,0,0,0,216,160,
160,212,0,0,0,0,0,0,0,160,0,409,409,409,409,409,409,409,409,0,0,409,409,409,409,409,409,409,409,0,0,0,0,0,0,160,0,0,216,160,
160,212,0,0,0,0,0,0,0,722,0,409,409,409,409,409,409,409,409,0,0,409,409,409,409,409,409,409,409,0,0,160,0,0,0,0,0,0,216,160,
160,212,0,0,0,0,0,0,0,0,0,409,409,409,409,409,409,409,409,0,0,409,409,409,409,409,409,409,409,0,0,0,0,0,0,0,0,0,216,160,
160,212,0,0,0,0,0,0,0,0,0,0,0,0,0,0,0,0,0,0,0,0,0,0,0,0,0,0,0,0,0,0,0,0,0,0,0,0,216,160,
160,212,0,0,0,0,0,0,0,0,0,0,0,0,0,0,0,0,0,160,0,0,0,0,0,0,0,0,0,0,0,0,0,0,0,0,0,0,216,160,
160,212,0,0,0,0,0,0,0,0,0,0,0,0,0,0,0,0,0,0,0,0,0,160,0,0,0,0,0,0,160,0,0,0,0,0,0,0,216,160,
154,155,0,0,0,0,0,0,0,0,0,0,0,0,0,0,0,0,0,0,0,0,0,0,0,0,0,0,0,0,0,0,0,0,0,160,0,0,216,160,
0,0,0,0,0,0,0,0,0,0,0,0,0,0,0,160,0,0,0,0,0,0,0,0,0,0,0,160,0,0,0,0,0,0,0,0,0,0,216,160,
0,0,0,0,0,0,0,0,0,0,0,0,0,0,0,0,0,0,0,0,0,0,0,0,0,0,0,0,0,0,0,0,0,0,0,0,0,0,216,160,
64,65,0,0,0,0,0,0,0,0,0,160,0,0,0,0,0,0,0,0,160,0,0,0,0,0,0,0,754,755,0,0,160,0,0,752,753,0,216,160,
160,212,0,0,0,0,0,0,0,0,0,0,0,0,0,0,0,0,0,0,0,0,0,0,0,0,0,0,784,785,0,0,0,0,0,782,783,0,246,160,
160,212,0,0,160,0,0,0,0,0,0,0,0,0,0,0,0,160,0,0,0,0,0,0,0,160,0,0,0,0,0,0,0,0,0,0,0,0,246,160,
160,272,274,274,274,274,274,274,274,274,274,274,274,274,274,274,274,274,274,274,274,274,274,274,274,274,274,274,274,274,274,274,274,274,274,274,274,274,276,160,
160,160,160,160,160,160,160,160,160,160,160,160,160,160,160,160,160,160,160,160,160,160,160,160,160,160,160,160,160,160,160,160,160,160,160,160,160,160,160,160
</data>
 </layer>
 <layer id="3" name="Transparent" width="40" height="40">
  <data encoding="csv">
0,0,0,0,0,0,0,0,0,0,0,0,0,0,0,0,0,0,0,0,0,0,0,0,0,0,0,0,0,0,0,0,0,0,0,0,0,0,0,0,
0,0,0,0,0,0,0,0,575,576,577,0,0,0,0,0,0,0,0,0,575,576,577,0,0,0,0,0,575,576,577,0,0,0,0,0,0,0,0,0,
0,0,575,576,577,0,0,0,605,606,607,0,0,575,576,577,0,0,0,0,605,606,607,0,572,573,574,0,605,606,607,0,0,0,0,0,0,0,0,0,
0,0,605,606,607,0,0,0,635,636,637,0,0,605,606,607,578,579,580,0,635,636,637,0,602,603,604,0,635,636,637,0,0,0,572,573,574,0,0,0,
0,0,635,636,637,572,573,574,665,666,667,579,580,635,636,637,608,609,610,0,665,666,667,0,632,633,634,0,665,666,667,575,576,577,602,603,604,0,0,0,
0,0,665,666,667,602,603,604,0,0,608,609,610,665,666,667,638,639,640,0,0,0,578,579,662,663,664,0,572,573,574,605,606,607,632,633,634,0,0,0,
0,0,0,0,0,632,633,634,0,0,638,639,640,575,576,577,668,669,670,0,0,0,608,609,610,0,0,0,602,603,604,635,636,637,662,663,664,0,0,0,
0,0,0,0,0,662,663,664,0,0,668,669,670,605,606,607,698,699,700,0,0,0,638,639,640,0,0,0,632,633,634,665,666,667,0,0,0,0,0,0,
0,0,572,573,574,0,0,0,0,0,698,699,700,635,636,637,0,0,0,0,0,0,668,669,670,0,0,0,662,663,664,579,580,0,0,0,0,0,0,0,
0,0,602,603,604,0,0,575,576,577,0,0,0,665,666,667,0,0,0,0,0,0,698,699,700,0,0,0,0,0,608,609,610,0,0,575,576,577,0,0,
0,0,632,633,634,0,0,605,606,607,0,0,0,0,0,0,0,0,0,0,0,0,0,0,0,0,0,0,0,0,638,639,640,0,0,605,606,607,0,0,
0,0,662,663,664,0,0,635,636,637,0,0,0,0,0,0,0,0,0,0,0,0,0,0,0,0,0,0,0,0,668,669,670,0,0,635,636,637,0,0,
0,0,0,578,579,580,0,665,666,667,0,0,0,0,0,0,0,0,0,0,0,0,0,0,0,0,0,0,0,0,698,699,700,575,576,577,666,667,0,0,
0,0,0,608,609,610,0,0,575,576,577,0,0,0,0,0,0,0,0,0,0,0,0,0,0,0,0,0,0,0,0,0,0,605,606,607,0,0,0,0,
0,0,0,638,639,640,0,0,605,606,607,0,0,0,0,0,0,0,0,0,0,0,0,0,0,0,0,0,0,0,0,0,0,635,636,637,0,0,0,0,
0,0,0,668,669,670,0,0,635,636,637,0,0,0,0,0,0,0,0,0,0,0,0,0,0,0,0,0,0,0,572,573,574,665,666,667,580,0,0,0,
0,0,0,698,699,700,578,579,665,666,667,0,0,0,0,0,0,0,0,0,0,0,0,0,575,576,577,0,0,0,602,603,604,0,608,609,610,0,0,0,
0,0,0,0,0,0,608,609,610,0,0,0,0,0,0,0,0,0,0,0,0,0,0,0,605,606,607,0,0,0,632,633,634,0,638,639,640,0,0,0,
0,0,0,0,0,0,638,639,640,0,0,0,0,0,0,0,0,0,0,0,0,0,0,0,635,636,637,0,0,0,662,663,664,0,668,669,670,0,0,0,
0,0,0,0,0,0,668,669,670,0,0,0,0,0,0,0,0,0,0,0,0,0,0,0,665,666,667,0,0,0,0,0,0,0,698,699,700,0,0,0,
0,0,0,0,0,0,698,699,700,0,0,0,0,0,0,0,0,0,0,0,0,0,0,0,0,0,0,0,0,0,0,575,576,577,0,0,0,0,0,0,
0,0,0,578,579,580,0,0,0,0,0,0,0,0,0,0,0,0,0,0,0,0,0,0,0,0,0,0,0,0,0,605,606,607,0,0,0,0,0,0,
0,0,0,608,609,610,0,0,578,579,580,0,0,0,0,0,0,0,0,0,0,0,0,0,0,0,0,0,0,0,0,635,636,637,578,579,580,0,0,0,
0,0,0,638,639,640,0,0,608,609,610,0,0,0,0,0,0,0,0,0,0,0,0,0,0,0,0,0,0,0,0,665,666,667,608,609,610,0,0,0,
0,0,0,668,669,670,0,0,638,639,640,0,0,0,0,0,0,0,0,0,0,0,0,0,0,0,0,0,0,0,575,576,577,0,638,639,640,0,0,0,
0,0,0,698,699,700,0,0,668,669,670,0,0,0,0,0,0,0,0,0,0,0,0,0,0,0,0,0,0,0,605,606,607,0,668,669,670,0,0,0,
0,0,0,0,0,0,0,578,698,699,700,0,0,0,0,0,0,0,0,0,0,0,0,0,0,0,0,0,0,0,635,636,637,0,698,699,700,0,0,0,
0,0,0,0,0,0,0,608,609,610,0,0,0,0,0,0,0,0,575,576,577,0,0,0,0,0,0,0,0,0,665,666,667,0,0,0,0,0,0,0,
0,0,0,572,573,574,0,638,639,640,0,0,0,0,0,0,0,0,605,606,607,0,572,573,574,0,0,0,0,575,576,577,0,0,578,579,580,0,0,0,
0,0,0,602,603,604,0,668,669,670,0,0,0,0,0,0,0,0,635,636,637,0,602,603,604,0,0,0,0,605,606,607,0,0,608,609,610,0,0,0,
0,0,0,632,633,634,0,698,699,700,0,0,0,0,575,576,577,0,665,666,667,0,632,633,634,0,575,576,577,635,636,637,0,0,638,639,640,0,0,0,
0,0,0,662,663,664,0,0,0,0,578,579,580,0,605,606,607,0,0,0,0,0,662,663,664,0,605,606,607,665,666,667,579,580,668,669,670,0,0,0,
0,0,0,0,0,0,0,0,0,0,608,609,610,0,635,636,637,0,0,575,576,577,0,0,0,0,635,636,637,0,0,608,609,610,698,699,700,0,0,0,
0,0,0,578,579,580,0,572,573,574,638,639,640,0,665,666,667,0,0,605,606,607,0,0,578,579,665,666,667,0,0,638,639,640,0,0,0,0,0,0,
0,0,0,608,609,610,0,602,603,604,668,669,670,0,0,0,572,573,574,635,636,637,0,0,608,609,610,0,0,0,0,668,669,670,0,0,0,0,0,0,
0,0,0,638,639,640,0,632,633,634,698,699,700,0,0,0,602,603,604,665,666,667,0,0,638,639,640,0,0,0,0,698,699,700,0,0,0,0,0,0,
0,0,0,668,669,670,0,662,663,664,0,0,0,0,0,0,632,633,634,0,0,0,0,0,668,669,670,0,0,0,0,0,0,0,0,0,0,0,0,0,
0,0,0,698,699,700,0,0,0,0,0,0,0,0,0,0,662,663,664,0,0,0,0,0,698,699,700,0,0,0,0,0,0,0,0,0,0,0,0,0,
0,0,0,0,0,0,0,0,0,0,0,0,0,0,0,0,0,0,0,0,0,0,0,0,0,0,0,0,0,0,0,0,0,0,0,0,0,0,0,0,
0,0,0,0,0,0,0,0,0,0,0,0,0,0,0,0,0,0,0,0,0,0,0,0,0,0,0,0,0,0,0,0,0,0,0,0,0,0,0,0
</data>
 </layer>
 <layer id="4" name="Enemies_spawn" width="40" height="40">
  <data encoding="csv">
0,0,0,0,0,0,0,0,0,0,0,0,0,0,0,0,0,0,0,0,0,0,0,0,0,0,0,0,0,0,0,0,0,0,0,0,0,0,0,0,
0,0,0,0,0,0,0,0,0,0,0,0,0,0,0,0,0,0,0,0,0,0,0,0,0,0,0,0,0,0,0,0,0,0,0,0,0,0,0,0,
0,0,0,0,0,0,0,0,0,0,0,0,0,0,0,0,0,0,0,0,0,0,0,0,0,0,0,0,0,0,0,0,0,0,0,0,0,0,0,0,
0,0,0,410,410,410,410,410,0,0,0,410,410,410,410,410,410,410,410,410,0,0,0,410,410,410,410,410,0,0,0,410,410,410,410,410,410,0,0,0,
0,0,0,0,0,410,410,410,0,0,0,410,410,0,0,0,410,410,410,410,0,0,0,410,0,0,0,410,0,0,0,410,410,410,410,410,410,0,0,0,
0,0,0,0,0,410,410,410,0,0,0,410,410,0,0,0,410,410,410,410,0,0,0,410,0,0,0,410,0,0,0,410,410,410,0,0,0,0,0,0,
0,0,0,0,0,0,0,0,410,410,410,410,410,0,0,0,0,0,0,410,410,410,410,410,0,0,0,410,410,410,410,0,0,0,0,0,0,0,0,0,
0,0,0,0,0,0,0,0,410,410,0,0,0,410,410,410,0,0,0,410,410,410,410,410,410,410,410,410,0,0,0,0,0,0,0,0,0,0,0,0,
0,0,0,0,0,0,0,0,410,410,0,0,0,0,0,0,0,0,0,0,410,410,0,0,0,410,410,410,0,0,0,0,0,0,0,0,410,0,0,0,
0,0,0,410,410,410,410,410,410,410,0,0,0,0,0,0,410,0,0,0,410,410,0,0,0,410,410,410,0,0,0,0,0,0,0,0,410,0,0,0,
0,0,0,0,0,410,410,410,410,410,0,0,0,0,0,0,0,0,0,0,0,0,0,0,0,0,0,0,0,0,0,0,0,0,0,0,410,0,0,0,
0,0,0,0,0,410,410,0,0,0,0,0,0,0,0,0,0,0,0,0,0,0,0,0,0,0,0,0,0,0,0,0,0,410,410,0,0,0,0,0,
0,0,0,0,0,410,410,0,0,0,0,0,0,0,0,0,0,0,0,0,0,0,0,0,0,0,0,0,0,0,0,0,0,410,410,0,0,0,0,0,
0,0,0,410,410,410,410,0,0,0,0,0,0,0,0,0,0,0,0,0,0,0,0,0,0,0,0,0,0,0,0,0,0,410,410,0,0,0,0,0,
0,0,0,410,410,410,410,410,0,0,0,0,0,0,0,0,0,0,0,0,0,0,0,0,0,0,0,0,0,0,410,410,410,0,0,0,410,0,0,0,
0,0,0,0,0,0,410,410,0,0,0,0,0,0,0,0,0,0,0,0,0,0,0,0,0,0,0,0,0,0,410,410,410,0,0,0,410,0,0,0,
0,0,0,0,0,0,410,410,0,0,0,0,0,0,0,0,0,0,0,0,0,0,0,0,0,0,0,0,0,0,410,410,410,0,0,0,410,0,0,0,
0,0,0,0,0,0,410,410,0,0,0,0,0,0,0,0,0,0,0,0,0,0,0,0,0,0,0,0,0,0,0,0,0,410,410,0,410,0,0,0,
0,0,0,410,410,410,410,410,0,0,0,0,0,0,0,0,0,0,0,0,0,0,0,0,0,0,0,0,0,0,0,0,0,0,0,0,0,0,0,0,
0,0,0,410,410,410,0,0,0,0,0,0,0,0,0,0,0,0,0,0,0,0,0,0,0,0,0,0,0,0,0,0,0,0,0,0,0,0,0,0,
0,0,0,410,410,410,0,0,0,0,0,0,0,0,0,0,0,0,0,0,0,0,0,0,0,0,0,0,0,0,410,410,410,410,0,0,0,0,0,0,
0,0,0,410,410,410,0,0,0,0,0,0,0,0,0,0,0,0,0,0,0,0,0,0,0,0,0,0,0,0,410,410,410,410,410,410,410,0,0,0,
0,0,0,410,410,410,410,410,410,0,0,0,0,0,0,0,0,0,0,0,0,0,0,0,0,0,0,0,0,0,410,0,0,0,410,410,410,0,0,0,
0,0,0,0,0,0,0,0,0,0,0,0,0,0,0,0,0,0,0,0,0,0,0,0,0,0,0,0,0,0,410,0,0,0,410,410,410,0,0,0,
0,0,0,0,0,0,0,0,0,0,0,0,0,0,0,0,0,0,0,0,0,0,0,0,0,0,0,0,0,0,410,0,0,0,410,410,410,0,0,0,
0,0,0,0,0,0,0,0,0,0,0,0,0,0,0,0,0,0,0,0,0,0,0,0,0,0,0,0,0,0,410,410,410,410,0,0,0,0,0,0,
0,0,0,0,0,0,0,0,0,0,0,0,0,0,0,0,0,0,0,0,0,0,0,0,0,0,0,0,0,0,0,0,0,410,0,0,0,0,0,0,
0,0,0,410,410,410,410,410,0,0,0,0,0,0,0,0,0,0,0,0,0,0,0,0,0,0,0,0,0,0,0,0,0,410,0,0,0,0,0,0,
0,0,0,410,410,410,410,410,0,0,0,0,0,0,0,0,0,0,0,0,0,0,0,0,0,0,0,0,0,0,0,0,0,410,410,410,410,0,0,0,
0,0,0,410,410,410,410,410,410,410,0,0,0,0,0,0,0,0,0,0,0,0,0,0,0,0,0,0,0,0,410,410,410,410,410,410,410,0,0,0,
0,0,0,410,410,410,410,410,410,410,410,410,410,410,410,410,410,410,0,0,0,410,0,0,0,410,410,410,410,0,0,0,410,410,410,410,410,0,0,0,
0,0,0,410,410,410,410,410,410,410,410,410,410,410,410,410,410,410,0,0,0,410,0,0,0,410,410,410,410,0,0,0,410,410,0,0,0,0,0,0,
0,0,0,410,410,410,410,410,410,410,410,410,410,410,0,0,0,410,410,410,410,410,0,0,0,410,0,0,0,0,0,0,410,410,0,0,0,0,0,0,
0,0,0,410,410,410,410,410,410,410,410,410,410,410,0,0,0,410,410,410,410,410,410,410,410,410,0,0,0,410,410,410,410,410,0,0,0,0,0,0,
0,0,0,410,410,410,410,410,410,410,0,0,0,410,0,0,0,410,410,0,0,0,410,410,410,410,0,0,0,0,0,0,0,0,0,0,0,0,0,0,
0,0,0,410,410,410,410,410,410,410,0,0,0,410,410,410,410,410,410,0,0,0,410,410,410,410,410,0,0,0,0,0,0,0,0,0,0,0,0,0,
0,0,0,0,0,0,410,410,410,410,0,0,0,410,410,410,0,0,0,0,0,0,410,410,0,0,0,0,0,0,0,0,0,0,0,0,0,0,0,0,
0,0,0,0,0,0,0,0,0,0,0,0,0,0,0,0,0,0,0,0,0,0,0,0,0,0,0,0,0,0,0,0,0,0,0,0,0,0,0,0,
0,0,0,0,0,0,0,0,0,0,0,0,0,0,0,0,0,0,0,0,0,0,0,0,0,0,0,0,0,0,0,0,0,0,0,0,0,0,0,0,
0,0,0,0,0,0,0,0,0,0,0,0,0,0,0,0,0,0,0,0,0,0,0,0,0,0,0,0,0,0,0,0,0,0,0,0,0,0,0,0
</data>
 </layer>
 <layer id="5" name="Player_spawn" width="40" height="40">
  <data encoding="csv">
0,0,0,0,0,0,0,0,0,0,0,0,0,0,0,0,0,0,0,0,0,0,0,0,0,0,0,0,0,0,0,0,0,0,0,0,0,0,0,0,
0,0,0,0,0,0,0,0,0,0,0,0,0,0,0,0,0,0,0,0,0,0,0,0,0,0,0,0,0,0,0,0,0,0,0,0,0,0,0,0,
0,0,0,0,0,0,0,0,0,0,0,0,0,0,0,0,0,0,0,0,0,0,0,0,0,0,0,0,0,0,0,0,0,0,0,0,0,0,0,0,
0,0,0,0,0,0,445,445,0,0,0,0,0,0,0,0,0,445,445,0,0,0,0,0,0,0,0,0,0,0,0,0,0,0,0,0,0,0,0,0,
0,0,0,0,0,0,445,445,0,0,0,0,0,0,0,0,0,445,445,0,0,0,0,0,0,0,0,0,0,0,0,0,0,0,0,0,0,0,0,0,
0,0,0,0,0,0,0,0,0,0,0,0,0,0,0,0,0,0,0,0,0,0,0,0,0,0,0,0,0,0,0,0,0,0,0,0,0,0,0,0,
0,0,0,0,0,0,0,0,0,0,0,0,0,0,0,0,0,0,0,0,0,0,0,0,0,0,0,0,0,0,0,0,0,0,0,0,0,0,0,0,
0,0,0,0,0,0,0,0,0,0,0,0,0,0,0,0,0,0,0,0,0,0,0,0,0,0,0,0,0,0,0,0,0,0,0,0,0,0,0,0,
0,0,0,0,0,0,0,0,0,0,0,0,0,0,0,0,0,0,0,0,0,0,0,0,0,0,0,0,0,0,0,0,0,0,445,445,0,0,0,0,
0,0,0,0,0,0,0,0,0,0,0,0,0,0,0,0,0,0,0,0,0,0,0,0,0,0,0,0,0,0,0,0,0,0,445,445,0,0,0,0,
0,0,0,0,0,0,0,0,0,0,0,0,0,0,0,0,0,0,0,0,0,0,0,0,0,0,0,0,0,0,0,0,0,0,0,0,0,0,0,0,
0,0,0,0,0,0,0,0,0,0,0,0,0,0,0,0,0,0,0,0,0,0,0,0,0,0,0,0,0,0,0,0,0,0,0,0,0,0,0,0,
0,0,0,0,0,0,0,0,0,0,0,0,0,0,0,0,0,0,0,0,0,0,0,0,0,0,0,0,0,0,0,0,0,0,0,0,0,0,0,0,
0,0,0,0,0,0,0,0,0,0,0,0,0,0,0,0,0,0,0,0,0,0,0,0,0,0,0,0,0,0,0,0,0,0,0,0,0,0,0,0,
0,0,0,0,0,0,0,0,0,0,0,0,0,0,0,0,0,0,0,0,0,0,0,0,0,0,0,0,0,0,0,0,0,0,0,0,0,0,0,0,
0,0,0,0,0,0,0,0,0,0,0,0,0,0,0,0,0,0,0,0,0,0,0,0,0,0,0,0,0,0,0,0,0,0,0,0,0,0,0,0,
0,0,0,0,0,0,0,0,0,0,0,0,0,0,0,0,0,0,0,0,0,0,0,0,0,0,0,0,0,0,0,0,0,0,0,0,0,0,0,0,
0,0,0,0,0,0,0,0,0,0,0,0,0,0,0,0,0,0,0,0,0,0,0,0,0,0,0,0,0,0,0,0,0,0,0,0,0,0,0,0,
0,0,0,0,0,0,0,0,0,0,0,0,0,0,0,0,0,0,0,0,0,0,0,0,0,0,0,0,0,0,0,0,0,0,0,0,0,0,0,0,
0,0,0,0,0,0,0,0,0,0,0,0,0,0,0,0,0,0,0,0,0,0,0,0,0,0,0,0,0,0,0,0,0,0,0,0,0,0,0,0,
0,0,0,0,0,0,0,0,0,0,0,0,0,0,0,0,0,0,0,0,0,0,0,0,0,0,0,0,0,0,0,0,0,0,0,0,0,0,0,0,
0,0,0,0,0,0,0,0,0,0,0,0,0,0,0,0,0,0,0,0,0,0,0,0,0,0,0,0,0,0,0,0,0,0,0,0,0,0,0,0,
0,0,0,0,0,0,0,0,0,0,0,0,0,0,0,0,0,0,0,0,0,0,0,0,0,0,0,0,0,0,0,0,0,0,0,0,0,0,0,0,
0,0,0,0,0,0,0,0,0,0,0,0,0,0,0,0,0,0,0,0,0,0,0,0,0,0,0,0,0,0,0,0,0,0,0,0,0,0,0,0,
0,0,0,0,0,0,0,0,0,0,0,0,0,0,0,0,0,0,0,0,0,0,0,0,0,0,0,0,0,0,0,0,0,0,0,0,0,0,0,0,
0,0,0,0,0,0,0,0,0,0,0,0,0,0,0,0,0,0,0,0,0,0,0,0,0,0,0,0,0,0,0,0,0,0,0,0,0,0,0,0,
0,0,0,0,0,0,0,0,0,0,0,0,0,0,0,0,0,0,0,0,0,0,0,0,0,0,0,0,0,0,0,0,0,0,0,0,0,0,0,0,
0,0,0,0,445,445,0,0,0,0,0,0,0,0,0,0,0,0,0,0,0,0,0,0,0,0,0,0,0,0,0,0,0,0,0,0,0,0,0,0,
0,0,0,0,445,445,0,0,0,0,0,0,0,0,0,0,0,0,0,0,0,0,0,0,0,0,0,0,0,0,0,0,0,0,0,445,445,0,0,0,
0,0,0,0,0,0,0,0,0,0,0,0,0,0,0,0,0,0,0,0,0,0,0,0,0,0,0,0,0,0,0,0,0,0,0,445,445,0,0,0,
0,0,0,0,0,0,0,0,0,0,0,0,0,0,0,0,0,0,0,0,0,0,0,0,0,0,0,0,0,0,0,0,0,0,0,0,0,0,0,0,
0,0,0,0,0,0,0,0,0,0,0,0,0,0,0,0,0,0,0,0,0,0,0,0,0,0,0,0,0,0,0,0,0,0,0,0,0,0,0,0,
0,0,0,0,0,0,0,0,0,0,0,0,0,0,0,0,0,0,0,0,0,0,0,0,0,0,0,0,0,0,0,0,0,0,0,0,0,0,0,0,
0,0,0,0,0,0,0,0,0,0,0,0,0,0,0,0,0,0,0,0,0,0,0,445,445,0,0,0,0,0,0,0,0,0,0,0,0,0,0,0,
0,0,0,0,0,0,0,0,0,0,0,0,0,0,0,0,0,0,0,0,0,0,0,445,445,0,0,0,0,0,0,0,0,0,0,0,0,0,0,0,
0,0,0,0,0,0,0,0,0,0,0,0,0,0,0,0,0,0,0,0,0,0,0,0,0,0,0,0,0,0,0,0,0,0,0,0,0,0,0,0,
0,0,0,0,0,0,0,0,0,0,0,0,0,0,0,0,0,0,0,0,0,0,0,0,0,0,0,0,0,0,0,0,0,0,0,0,0,0,0,0,
0,0,0,0,0,0,0,0,0,0,0,0,0,0,0,0,0,0,0,0,0,0,0,0,0,0,0,0,0,0,0,0,0,0,0,0,0,0,0,0,
0,0,0,0,0,0,0,0,0,0,0,0,0,0,0,0,0,0,0,0,0,0,0,0,0,0,0,0,0,0,0,0,0,0,0,0,0,0,0,0,
0,0,0,0,0,0,0,0,0,0,0,0,0,0,0,0,0,0,0,0,0,0,0,0,0,0,0,0,0,0,0,0,0,0,0,0,0,0,0,0
</data>
 </layer>
 <layer id="6" name="Door_open" width="40" height="40">
  <data encoding="csv">
0,0,0,0,0,0,0,0,0,0,0,0,0,0,0,0,0,0,0,0,0,0,0,0,0,0,0,0,0,0,0,0,0,0,0,0,0,0,0,0,
0,0,0,0,0,0,0,0,0,0,0,0,0,0,0,0,0,0,0,0,0,0,0,0,0,0,0,0,0,0,0,0,0,0,0,0,0,0,0,0,
0,0,0,0,0,0,0,0,0,0,0,0,0,0,0,0,0,0,0,0,0,0,0,0,0,0,0,0,0,0,0,0,0,0,0,0,0,0,0,0,
0,0,0,0,0,0,0,0,0,0,0,0,0,0,0,0,0,0,0,0,0,0,0,0,0,0,0,0,0,0,0,0,0,0,0,0,0,0,0,0,
0,0,0,0,0,0,0,0,0,0,0,0,0,0,0,0,0,0,0,0,0,0,0,0,0,0,0,0,0,0,0,0,0,0,0,0,0,0,0,0,
0,0,0,0,0,0,0,0,0,0,0,0,0,0,0,0,0,0,0,0,0,0,0,0,0,0,0,0,0,0,0,0,0,0,0,0,0,0,0,0,
0,0,0,0,0,0,0,0,0,0,0,0,0,0,0,0,0,0,0,0,0,0,0,0,0,0,0,0,0,0,0,0,0,0,0,0,0,0,0,0,
0,0,0,0,0,0,0,0,0,0,0,0,0,0,0,0,0,0,0,0,0,0,0,0,0,0,0,0,0,0,0,0,0,0,0,0,0,0,0,0,
0,0,0,0,0,0,0,0,0,0,0,0,0,0,0,0,0,0,0,0,0,0,0,0,0,0,0,0,0,0,0,0,0,0,0,0,0,0,0,0,
0,0,0,0,0,0,0,0,0,0,0,0,0,0,0,0,0,0,0,0,0,0,0,0,0,0,0,0,0,0,0,0,0,0,0,0,0,0,0,0,
0,0,0,0,0,0,0,0,0,0,0,0,0,0,0,0,0,0,0,0,0,0,0,0,0,0,0,0,0,0,0,0,0,0,0,0,0,0,0,0,
0,0,0,0,0,0,0,0,0,0,0,0,0,0,0,0,0,0,0,0,0,0,0,0,0,0,0,0,0,0,0,0,0,0,0,0,0,0,0,0,
0,0,0,0,0,0,0,0,0,0,0,0,0,0,0,0,0,0,0,0,0,0,0,0,0,0,0,0,0,0,0,0,0,0,0,0,0,0,0,0,
0,0,0,0,0,0,0,0,0,0,0,0,0,0,0,0,0,0,0,0,0,0,0,0,0,0,0,0,0,0,0,0,0,0,0,0,0,0,0,0,
0,0,0,0,0,0,0,0,0,0,0,0,0,0,0,0,0,0,0,0,0,0,0,0,0,0,0,0,0,0,0,0,0,0,0,0,0,0,0,0,
0,0,0,0,0,0,0,0,0,0,0,0,0,0,0,0,0,0,0,0,0,0,0,0,0,0,0,0,0,0,0,0,0,0,0,0,0,0,0,0,
0,0,0,0,0,0,0,0,0,0,0,0,0,0,0,0,0,0,0,0,0,0,0,0,0,0,0,0,0,0,0,0,0,0,0,0,0,0,0,0,
0,0,0,0,0,0,0,0,0,0,0,0,0,0,0,0,0,0,0,0,0,0,0,0,0,0,0,0,0,0,0,0,0,0,0,0,0,0,0,0,
0,0,0,0,0,0,0,0,0,0,0,0,0,0,0,0,0,0,0,0,0,0,0,0,0,0,0,0,0,0,0,0,0,0,0,0,0,0,0,0,
0,0,0,0,0,0,0,0,0,0,0,0,0,0,0,0,0,0,0,0,0,0,0,0,0,0,0,0,0,0,0,0,0,0,0,0,0,0,0,0,
0,0,0,0,0,0,0,0,0,0,0,0,0,0,0,0,0,0,0,0,0,0,0,0,0,0,0,0,0,0,0,0,0,0,0,0,0,0,0,0,
0,0,0,0,0,0,0,0,0,0,0,0,0,0,0,0,0,0,0,0,0,0,0,0,0,0,0,0,0,0,0,0,0,0,0,0,0,0,0,0,
0,0,0,0,0,0,0,0,0,0,0,0,0,0,0,0,0,0,0,0,0,0,0,0,0,0,0,0,0,0,0,0,0,0,0,0,0,0,0,0,
0,0,0,0,0,0,0,0,0,0,0,0,0,0,0,0,0,0,0,0,0,0,0,0,0,0,0,0,0,0,0,0,0,0,0,0,0,0,0,0,
0,0,0,0,0,0,0,0,0,0,0,0,0,0,0,0,0,0,0,0,0,0,0,0,0,0,0,0,0,0,0,0,0,0,0,0,0,0,0,0,
0,0,0,0,0,0,0,0,0,0,0,0,0,0,0,0,0,0,0,0,0,0,0,0,0,0,0,0,0,0,0,0,0,0,0,0,0,0,0,0,
0,0,0,0,0,0,0,0,0,0,0,0,0,0,0,0,0,0,0,0,0,0,0,0,0,0,0,0,0,0,0,0,0,0,0,0,0,0,0,0,
0,0,0,0,0,0,0,0,0,0,0,0,0,0,0,0,0,0,0,0,0,0,0,0,0,0,0,0,0,0,0,0,0,0,0,0,0,0,0,0,
0,0,0,0,0,0,0,0,0,0,0,0,0,0,0,0,0,0,0,0,0,0,0,0,0,0,0,0,0,0,0,0,0,0,0,0,0,0,0,0,
0,0,0,0,0,0,0,0,0,0,0,0,0,0,0,0,0,0,0,0,0,0,0,0,0,0,0,0,0,0,0,0,0,0,0,0,0,0,0,0,
0,0,0,0,0,0,0,0,0,0,0,0,0,0,0,0,0,0,0,0,0,0,0,0,0,0,0,0,0,0,0,0,0,0,0,0,0,0,0,0,
0,0,0,0,0,0,0,0,0,0,0,0,0,0,0,0,0,0,0,0,0,0,0,0,0,0,0,0,0,0,0,0,0,0,0,0,0,0,0,0,
0,0,0,0,0,0,0,0,0,0,0,0,0,0,0,0,0,0,0,0,0,0,0,0,0,0,0,0,0,0,0,0,0,0,0,0,0,0,0,0,
0,729,0,0,0,0,0,0,0,0,0,0,0,0,0,0,0,0,0,0,0,0,0,0,0,0,0,0,0,0,0,0,0,0,0,0,0,0,0,0,
0,729,0,0,0,0,0,0,0,0,0,0,0,0,0,0,0,0,0,0,0,0,0,0,0,0,0,0,0,0,0,0,0,0,0,0,0,0,0,0,
0,0,0,0,0,0,0,0,0,0,0,0,0,0,0,0,0,0,0,0,0,0,0,0,0,0,0,0,0,0,0,0,0,0,0,0,0,0,0,0,
0,0,0,0,0,0,0,0,0,0,0,0,0,0,0,0,0,0,0,0,0,0,0,0,0,0,0,0,0,0,0,0,0,0,0,0,0,0,0,0,
0,0,0,0,0,0,0,0,0,0,0,0,0,0,0,0,0,0,0,0,0,0,0,0,0,0,0,0,0,0,0,0,0,0,0,0,0,0,0,0,
0,0,0,0,0,0,0,0,0,0,0,0,0,0,0,0,0,0,0,0,0,0,0,0,0,0,0,0,0,0,0,0,0,0,0,0,0,0,0,0,
0,0,0,0,0,0,0,0,0,0,0,0,0,0,0,0,0,0,0,0,0,0,0,0,0,0,0,0,0,0,0,0,0,0,0,0,0,0,0,0
</data>
 </layer>
 <layer id="7" name="Door_closed" width="40" height="40">
  <data encoding="csv">
0,0,0,0,0,0,0,0,0,0,0,0,0,0,0,0,0,0,0,0,0,0,0,0,0,0,0,0,0,0,0,0,0,0,0,0,0,0,0,0,
0,0,0,0,0,0,0,0,0,0,0,0,0,0,0,0,0,0,0,0,0,0,0,0,0,0,0,0,0,0,0,0,0,0,0,0,0,0,0,0,
0,0,0,0,0,0,0,0,0,0,0,0,0,0,0,0,0,0,0,0,0,0,0,0,0,0,0,0,0,0,0,0,0,0,0,0,0,0,0,0,
0,0,0,0,0,0,0,0,0,0,0,0,0,0,0,0,0,0,0,0,0,0,0,0,0,0,0,0,0,0,0,0,0,0,0,0,0,0,0,0,
0,0,0,0,0,0,0,0,0,0,0,0,0,0,0,0,0,0,0,0,0,0,0,0,0,0,0,0,0,0,0,0,0,0,0,0,0,0,0,0,
0,0,0,0,0,0,0,0,0,0,0,0,0,0,0,0,0,0,0,0,0,0,0,0,0,0,0,0,0,0,0,0,0,0,0,0,0,0,0,0,
0,0,0,0,0,0,0,0,0,0,0,0,0,0,0,0,0,0,0,0,0,0,0,0,0,0,0,0,0,0,0,0,0,0,0,0,0,0,0,0,
0,0,0,0,0,0,0,0,0,0,0,0,0,0,0,0,0,0,0,0,0,0,0,0,0,0,0,0,0,0,0,0,0,0,0,0,0,0,0,0,
0,0,0,0,0,0,0,0,0,0,0,0,0,0,0,0,0,0,0,0,0,0,0,0,0,0,0,0,0,0,0,0,0,0,0,0,0,0,0,0,
0,0,0,0,0,0,0,0,0,0,0,0,0,0,0,0,0,0,0,0,0,0,0,0,0,0,0,0,0,0,0,0,0,0,0,0,0,0,0,0,
0,0,0,0,0,0,0,0,0,0,0,0,0,0,0,0,0,0,0,0,0,0,0,0,0,0,0,0,0,0,0,0,0,0,0,0,0,0,0,0,
0,0,0,0,0,0,0,0,0,0,0,0,0,0,0,0,0,0,0,0,0,0,0,0,0,0,0,0,0,0,0,0,0,0,0,0,0,0,0,0,
0,0,0,0,0,0,0,0,0,0,0,0,0,0,0,0,0,0,0,0,0,0,0,0,0,0,0,0,0,0,0,0,0,0,0,0,0,0,0,0,
0,0,0,0,0,0,0,0,0,0,0,0,0,0,0,0,0,0,0,0,0,0,0,0,0,0,0,0,0,0,0,0,0,0,0,0,0,0,0,0,
0,0,0,0,0,0,0,0,0,0,0,0,0,0,0,0,0,0,0,0,0,0,0,0,0,0,0,0,0,0,0,0,0,0,0,0,0,0,0,0,
0,0,0,0,0,0,0,0,0,0,0,0,0,0,0,0,0,0,0,0,0,0,0,0,0,0,0,0,0,0,0,0,0,0,0,0,0,0,0,0,
0,0,0,0,0,0,0,0,0,0,0,0,0,0,0,0,0,0,0,0,0,0,0,0,0,0,0,0,0,0,0,0,0,0,0,0,0,0,0,0,
0,0,0,0,0,0,0,0,0,0,0,0,0,0,0,0,0,0,0,0,0,0,0,0,0,0,0,0,0,0,0,0,0,0,0,0,0,0,0,0,
0,0,0,0,0,0,0,0,0,0,0,0,0,0,0,0,0,0,0,0,0,0,0,0,0,0,0,0,0,0,0,0,0,0,0,0,0,0,0,0,
0,0,0,0,0,0,0,0,0,0,0,0,0,0,0,0,0,0,0,0,0,0,0,0,0,0,0,0,0,0,0,0,0,0,0,0,0,0,0,0,
0,0,0,0,0,0,0,0,0,0,0,0,0,0,0,0,0,0,0,0,0,0,0,0,0,0,0,0,0,0,0,0,0,0,0,0,0,0,0,0,
0,0,0,0,0,0,0,0,0,0,0,0,0,0,0,0,0,0,0,0,0,0,0,0,0,0,0,0,0,0,0,0,0,0,0,0,0,0,0,0,
0,0,0,0,0,0,0,0,0,0,0,0,0,0,0,0,0,0,0,0,0,0,0,0,0,0,0,0,0,0,0,0,0,0,0,0,0,0,0,0,
0,0,0,0,0,0,0,0,0,0,0,0,0,0,0,0,0,0,0,0,0,0,0,0,0,0,0,0,0,0,0,0,0,0,0,0,0,0,0,0,
0,0,0,0,0,0,0,0,0,0,0,0,0,0,0,0,0,0,0,0,0,0,0,0,0,0,0,0,0,0,0,0,0,0,0,0,0,0,0,0,
0,0,0,0,0,0,0,0,0,0,0,0,0,0,0,0,0,0,0,0,0,0,0,0,0,0,0,0,0,0,0,0,0,0,0,0,0,0,0,0,
0,0,0,0,0,0,0,0,0,0,0,0,0,0,0,0,0,0,0,0,0,0,0,0,0,0,0,0,0,0,0,0,0,0,0,0,0,0,0,0,
0,0,0,0,0,0,0,0,0,0,0,0,0,0,0,0,0,0,0,0,0,0,0,0,0,0,0,0,0,0,0,0,0,0,0,0,0,0,0,0,
0,0,0,0,0,0,0,0,0,0,0,0,0,0,0,0,0,0,0,0,0,0,0,0,0,0,0,0,0,0,0,0,0,0,0,0,0,0,0,0,
0,0,0,0,0,0,0,0,0,0,0,0,0,0,0,0,0,0,0,0,0,0,0,0,0,0,0,0,0,0,0,0,0,0,0,0,0,0,0,0,
0,0,0,0,0,0,0,0,0,0,0,0,0,0,0,0,0,0,0,0,0,0,0,0,0,0,0,0,0,0,0,0,0,0,0,0,0,0,0,0,
0,0,0,0,0,0,0,0,0,0,0,0,0,0,0,0,0,0,0,0,0,0,0,0,0,0,0,0,0,0,0,0,0,0,0,0,0,0,0,0,
0,0,0,0,0,0,0,0,0,0,0,0,0,0,0,0,0,0,0,0,0,0,0,0,0,0,0,0,0,0,0,0,0,0,0,0,0,0,0,0,
0,760,0,0,0,0,0,0,0,0,0,0,0,0,0,0,0,0,0,0,0,0,0,0,0,0,0,0,0,0,0,0,0,0,0,0,0,0,0,0,
0,759,0,0,0,0,0,0,0,0,0,0,0,0,0,0,0,0,0,0,0,0,0,0,0,0,0,0,0,0,0,0,0,0,0,0,0,0,0,0,
0,0,0,0,0,0,0,0,0,0,0,0,0,0,0,0,0,0,0,0,0,0,0,0,0,0,0,0,0,0,0,0,0,0,0,0,0,0,0,0,
0,0,0,0,0,0,0,0,0,0,0,0,0,0,0,0,0,0,0,0,0,0,0,0,0,0,0,0,0,0,0,0,0,0,0,0,0,0,0,0,
0,0,0,0,0,0,0,0,0,0,0,0,0,0,0,0,0,0,0,0,0,0,0,0,0,0,0,0,0,0,0,0,0,0,0,0,0,0,0,0,
0,0,0,0,0,0,0,0,0,0,0,0,0,0,0,0,0,0,0,0,0,0,0,0,0,0,0,0,0,0,0,0,0,0,0,0,0,0,0,0,
0,0,0,0,0,0,0,0,0,0,0,0,0,0,0,0,0,0,0,0,0,0,0,0,0,0,0,0,0,0,0,0,0,0,0,0,0,0,0,0
</data>
 </layer>
</map>
