<?xml version="1.0" encoding="UTF-8"?>
<map version="1.10" tiledversion="1.11.2" orientation="orthogonal" renderorder="right-down" width="30" height="30" tilewidth="16" tileheight="16" infinite="0" nextlayerid="13" nextobjectid="1">
 <tileset firstgid="1" source="spr_grass_tileset.tsx"/>
 <layer id="7" name="Objects" width="30" height="30">
  <data encoding="csv">
0,0,0,0,0,0,0,0,0,0,0,0,0,0,0,0,0,0,0,0,0,0,0,0,0,0,0,0,0,0,
0,440,440,440,440,440,440,440,440,440,440,440,440,0,0,0,440,440,440,440,440,440,440,440,440,440,440,440,440,0,
0,440,0,0,0,0,0,0,0,0,0,0,0,0,0,0,0,0,0,0,0,0,0,0,0,0,0,0,440,0,
0,440,0,0,0,0,0,0,0,0,0,0,0,0,0,0,0,0,0,0,0,0,0,0,0,0,0,0,440,0,
0,440,0,0,0,0,0,0,0,0,0,0,0,0,0,0,0,0,0,0,0,0,0,0,0,0,0,0,440,0,
0,440,0,0,0,0,0,693,0,0,0,0,0,0,0,693,0,0,0,0,0,0,0,0,0,0,0,0,440,0,
0,440,0,0,0,0,0,0,0,0,0,693,0,0,0,0,0,0,0,0,0,693,0,0,0,693,0,0,440,0,
0,440,0,0,693,0,0,0,0,0,0,0,0,0,0,0,0,0,0,0,0,0,0,0,0,0,0,0,440,0,
0,440,0,0,0,0,0,0,0,0,0,0,0,0,0,0,0,0,0,0,0,0,0,0,0,0,0,0,440,0,
0,440,0,0,0,0,0,0,0,0,0,0,0,0,0,0,0,693,0,0,0,0,0,0,0,0,0,0,440,0,
0,440,0,0,0,0,0,0,0,0,0,0,0,0,0,0,0,0,0,0,0,0,0,0,0,0,0,0,440,0,
0,440,0,0,0,0,693,0,0,0,0,409,409,0,0,0,409,409,409,0,0,693,0,0,0,693,0,0,440,0,
0,440,0,0,0,0,0,0,0,0,0,409,0,0,0,0,0,0,409,0,0,0,0,0,0,0,0,0,440,0,
0,440,0,0,0,0,0,0,0,0,0,409,0,0,0,0,0,0,409,0,0,0,0,0,0,0,0,0,440,0,
0,440,0,0,0,0,0,0,0,0,0,409,0,0,0,0,0,0,409,0,0,0,0,0,0,0,0,0,440,0,
0,440,0,693,0,0,0,0,0,0,0,409,0,0,0,0,693,0,409,0,0,0,0,0,0,0,0,0,440,0,
0,440,0,0,0,0,0,693,0,0,0,409,0,0,0,0,0,0,409,0,693,0,0,0,0,0,0,0,440,0,
0,440,0,0,0,0,0,0,0,0,0,409,0,0,0,0,0,0,409,0,0,0,0,0,0,0,0,0,440,0,
0,440,0,0,0,0,0,0,0,0,0,409,409,409,0,0,0,409,409,0,0,0,0,0,0,693,0,0,440,0,
0,440,0,0,0,0,0,0,0,0,0,0,0,0,0,0,0,0,0,0,0,0,0,0,0,0,0,0,440,0,
0,440,0,0,0,0,0,0,0,0,0,0,0,0,0,0,0,0,0,0,0,0,693,0,0,0,0,0,440,0,
0,440,0,0,693,0,0,0,0,0,0,0,0,0,0,0,0,0,0,0,0,0,0,0,0,0,0,0,440,0,
0,440,0,0,0,0,0,0,0,693,0,0,0,0,0,0,0,0,0,0,0,0,0,0,0,0,0,0,440,0,
0,440,0,0,0,0,0,0,0,0,0,0,0,0,0,0,0,0,0,693,0,0,0,0,0,0,0,0,440,0,
0,440,0,0,0,0,0,0,0,0,0,0,0,0,0,0,0,0,0,0,0,0,0,0,0,0,0,0,440,0,
0,440,0,0,0,693,0,0,0,0,0,0,0,0,0,0,0,0,0,0,0,0,0,0,0,0,0,0,440,0,
0,440,0,0,0,0,0,0,693,0,0,0,0,0,0,0,693,0,0,0,0,0,0,0,0,693,0,0,440,0,
0,440,0,0,0,0,0,0,0,0,0,0,0,0,0,0,0,0,0,0,0,0,0,0,0,0,0,0,440,0,
0,440,440,440,440,440,440,440,440,440,440,440,440,440,440,440,440,440,440,440,440,440,440,440,440,440,440,440,440,0,
0,0,0,0,0,0,0,0,0,0,0,0,0,0,0,0,0,0,0,0,0,0,0,0,0,0,0,0,0,0
</data>
 </layer>
 <layer id="8" name="Ground_2" width="30" height="30">
  <data encoding="csv">
0,0,0,0,0,0,0,0,0,0,0,0,0,0,0,0,0,0,0,0,0,0,0,0,0,0,0,0,0,0,
0,0,0,0,0,0,0,0,0,0,0,0,0,0,0,0,0,0,0,0,0,0,0,0,0,0,0,0,0,0,
0,0,0,0,0,0,0,0,0,0,0,0,0,0,0,0,0,0,0,0,0,0,0,0,0,0,0,0,0,0,
0,0,0,0,0,0,0,0,0,0,0,0,0,0,0,0,0,0,0,0,0,0,0,0,0,0,0,0,0,0,
0,0,0,0,0,0,0,0,0,0,0,0,0,0,0,0,0,0,0,0,0,0,0,0,0,0,0,0,0,0,
0,0,0,0,0,0,0,0,0,0,0,0,0,0,0,0,0,0,0,0,0,0,0,0,0,0,0,0,0,0,
0,0,0,0,0,0,0,0,0,0,0,0,0,0,0,0,0,0,0,0,0,0,0,0,0,0,0,0,0,0,
0,0,0,0,0,0,0,0,0,0,0,0,0,0,0,0,0,0,0,0,0,0,0,0,0,0,0,0,0,0,
0,0,0,0,0,0,0,0,0,0,0,0,0,0,0,0,0,0,0,0,0,0,0,0,0,0,0,0,0,0,
0,0,0,0,0,0,0,0,0,0,0,0,0,528,529,530,0,0,0,0,0,0,0,0,0,0,0,0,0,0,
0,0,0,0,0,0,0,0,0,0,0,0,0,558,559,560,0,0,0,0,0,0,0,0,0,0,0,0,0,0,
0,0,0,0,0,0,0,0,0,0,0,0,0,648,649,650,0,0,0,0,0,0,0,0,0,0,0,0,0,0,
0,0,0,0,0,0,0,0,0,0,0,0,0,678,679,680,0,0,0,0,0,0,0,0,0,0,0,0,0,0,
0,0,0,0,0,0,0,0,0,0,0,0,0,0,0,0,0,0,0,0,0,0,0,0,0,0,0,0,0,0,
0,0,0,0,0,0,0,0,0,0,0,0,0,0,0,0,0,0,0,0,0,0,0,0,0,0,0,0,0,0,
0,0,0,0,0,0,0,0,0,0,0,0,0,0,0,0,0,0,0,0,0,0,0,0,0,0,0,0,0,0,
0,0,0,0,0,0,0,0,0,0,0,0,0,0,0,0,0,0,0,0,0,0,0,0,0,0,0,0,0,0,
0,0,0,0,0,0,0,0,0,0,0,0,0,0,558,559,560,0,0,0,0,0,0,0,0,0,0,0,0,0,
0,0,0,0,0,0,0,0,0,0,0,0,0,0,648,649,650,0,0,0,0,0,0,0,0,0,0,0,0,0,
0,0,0,0,0,0,0,0,0,0,0,0,0,0,678,679,680,0,0,0,0,0,0,0,0,0,0,0,0,0,
0,0,0,0,0,0,0,0,0,0,0,0,0,0,0,0,0,0,0,0,0,0,0,0,0,0,0,0,0,0,
0,0,0,0,0,0,0,0,0,0,0,0,0,0,0,0,0,0,0,0,0,0,0,0,0,0,0,0,0,0,
0,0,0,0,0,0,0,0,0,0,0,0,0,0,0,0,0,0,0,0,0,0,0,0,0,0,0,0,0,0,
0,0,0,0,0,0,0,0,0,0,0,0,0,0,0,0,0,0,0,0,0,0,0,0,0,0,0,0,0,0,
0,0,0,0,0,0,0,0,0,0,0,0,0,0,0,0,0,0,0,0,0,0,0,0,0,0,0,0,0,0,
0,0,0,0,0,0,0,0,0,0,0,0,0,0,0,0,0,0,0,0,0,0,0,0,0,0,0,0,0,0,
0,0,0,0,0,0,0,0,0,0,0,0,0,0,0,0,0,0,0,0,0,0,0,0,0,0,0,0,0,0,
0,0,0,0,0,0,0,0,0,0,0,0,0,0,0,0,0,0,0,0,0,0,0,0,0,0,0,0,0,0,
0,0,0,0,0,0,0,0,0,0,0,0,0,0,0,0,0,0,0,0,0,0,0,0,0,0,0,0,0,0,
0,0,0,0,0,0,0,0,0,0,0,0,0,0,0,0,0,0,0,0,0,0,0,0,0,0,0,0,0,0
</data>
 </layer>
 <layer id="1" name="Ground" width="30" height="30">
  <data encoding="csv">
377,378,379,379,379,379,379,379,379,379,379,379,379,381,157,377,379,379,379,379,379,379,379,379,379,379,379,379,380,381,
407,0,0,0,0,0,0,0,0,0,0,0,0,441,157,437,0,0,0,0,0,0,0,0,0,0,0,0,0,411,
407,0,373,469,469,469,469,469,469,469,469,469,469,471,157,467,469,469,469,469,469,469,469,469,469,469,469,376,0,411,
407,0,433,160,93,160,160,160,160,160,160,160,197,198,198,198,200,160,160,160,160,160,124,160,160,160,94,406,0,411,
407,0,433,160,160,160,160,160,160,160,160,160,221,247,278,278,219,124,160,93,160,160,160,160,160,160,160,406,0,411,
407,0,433,160,160,160,160,160,160,124,160,160,221,278,278,189,290,160,160,160,160,160,160,160,94,160,160,406,0,411,
407,0,433,160,160,160,160,160,160,160,160,160,221,248,278,249,200,160,160,123,160,160,160,160,160,160,160,406,0,411,
407,0,433,160,160,160,93,160,160,160,160,160,221,278,278,247,219,160,160,160,160,160,94,160,160,160,160,406,0,411,
407,0,433,160,160,160,94,160,160,93,160,160,287,190,190,190,290,160,160,160,124,160,160,93,160,160,94,406,0,411,
407,0,433,160,94,160,160,160,160,160,160,160,160,0,0,0,160,160,160,160,160,160,160,160,160,160,160,406,0,411,
407,0,433,93,160,160,160,160,160,160,377,378,379,379,379,379,379,379,380,381,160,160,160,160,160,160,160,406,0,411,
407,0,433,160,160,160,160,160,93,160,407,0,0,409,409,409,0,0,0,411,160,160,160,160,160,160,160,406,0,411,
407,0,433,160,123,160,160,160,160,160,437,0,373,469,469,469,375,376,0,411,160,160,160,93,160,160,160,406,0,411,
407,0,433,160,160,160,2684354683,160,160,160,437,0,433,404,187,187,405,406,0,411,160,160,160,160,160,160,160,406,0,411,
407,0,433,160,160,160,160,160,160,2684354683,437,0,433,94,404,187,124,406,0,411,160,124,160,160,160,160,160,406,0,411,
407,0,433,160,160,160,160,160,160,160,437,0,433,187,434,187,187,406,0,411,160,160,160,160,160,93,160,406,0,411,
407,0,433,160,160,94,160,160,160,94,437,0,433,434,528,529,530,406,0,411,160,160,160,94,160,160,160,406,0,411,
407,0,433,160,160,160,160,160,160,160,437,0,463,465,464,464,379,466,0,411,160,160,160,160,160,160,124,406,0,411,
407,0,433,160,160,160,160,160,124,160,437,0,0,0,409,409,409,0,0,411,160,160,160,160,160,160,160,406,0,411,
407,0,433,160,2684354683,160,2684354683,160,160,94,467,469,469,469,250,250,250,470,470,471,160,124,160,160,160,123,160,406,0,411,
407,0,433,160,160,160,160,160,160,124,160,160,94,220,220,197,250,250,199,200,160,160,160,160,160,160,160,406,0,441,
407,0,433,160,160,160,160,160,160,160,160,160,160,160,220,221,247,278,248,124,160,160,160,160,124,160,94,406,0,441,
407,0,433,160,160,124,160,124,160,160,160,160,93,160,160,221,278,278,278,219,160,94,160,160,160,160,160,406,0,441,
407,0,433,93,160,160,160,160,160,160,160,94,160,160,2684354683,287,191,278,248,249,250,200,160,160,93,160,123,406,0,441,
407,0,433,160,160,160,160,160,124,160,160,160,160,160,160,160,221,278,278,278,278,219,160,160,160,160,124,406,0,441,
407,0,433,160,160,160,160,94,160,160,160,93,160,160,123,160,287,191,277,278,278,219,160,160,160,160,160,406,0,441,
407,0,433,160,160,93,160,160,160,160,160,160,94,160,160,160,160,287,190,190,190,290,160,160,160,160,93,406,0,441,
407,0,463,379,464,464,464,464,464,464,464,464,464,464,464,464,464,464,464,464,464,464,464,464,464,464,465,466,0,441,
437,0,0,0,0,0,0,0,0,0,0,0,0,0,0,0,0,0,0,0,0,0,0,0,0,0,0,0,0,441,
467,468,468,468,468,468,468,468,468,468,468,468,468,468,468,468,468,468,468,468,468,468,468,468,468,468,468,468,468,471
</data>
 </layer>
 <layer id="5" name="Mini_objects" width="30" height="30">
  <data encoding="csv">
0,0,0,0,0,0,0,0,0,0,0,0,0,0,0,0,0,0,0,0,0,0,0,0,0,0,0,0,0,0,
0,0,0,0,0,0,0,0,0,0,0,0,0,0,0,0,0,0,0,0,0,0,0,0,0,0,0,0,0,0,
0,0,0,0,0,0,0,0,0,0,0,0,0,0,0,0,0,0,0,0,0,0,0,0,0,0,0,0,0,0,
0,0,0,0,0,0,0,0,0,0,0,0,0,0,0,200,160,0,0,0,0,0,0,0,0,0,0,0,0,0,
0,0,0,0,0,0,0,0,0,0,0,197,251,0,0,0,0,0,0,0,0,0,0,0,0,0,0,0,0,0,
0,0,0,0,0,0,0,0,0,0,0,221,0,278,0,0,0,0,0,0,0,0,0,0,0,0,0,0,0,0,
0,0,0,0,0,0,0,0,0,0,0,287,0,0,0,0,219,0,0,0,0,0,0,0,0,0,0,0,0,0,
0,0,0,0,0,0,0,0,0,0,0,0,0,0,0,0,0,0,0,0,0,0,0,0,0,0,0,0,0,0,
0,0,0,0,0,0,0,0,0,0,0,0,0,0,0,0,0,0,0,0,0,0,0,0,0,0,0,0,0,0,
0,0,0,0,0,0,0,0,0,0,0,0,0,0,0,0,0,0,0,0,0,0,0,0,0,0,0,0,0,0,
0,0,0,0,0,0,0,0,0,0,0,0,0,0,0,0,0,0,0,0,0,0,0,0,0,0,0,0,0,0,
0,0,0,0,0,0,0,0,0,0,0,0,0,0,0,0,0,0,0,0,0,0,0,0,0,0,0,0,0,0,
0,0,0,0,0,0,0,0,0,0,0,0,0,0,0,0,0,0,0,0,0,0,0,0,0,0,0,0,0,0,
0,0,0,0,0,0,0,0,0,0,0,0,0,0,0,0,0,0,0,0,0,0,0,0,725,726,0,0,0,0,
0,0,0,0,0,0,0,0,0,0,0,0,0,0,0,0,0,0,0,0,0,0,0,0,0,0,0,0,0,0,
0,0,0,0,0,0,0,0,0,0,0,0,0,0,0,0,0,0,0,0,0,0,0,0,0,0,0,0,0,0,
0,0,0,0,0,0,0,0,0,0,0,0,0,0,0,0,0,0,0,0,0,0,0,0,0,0,0,0,0,0,
0,0,0,0,722,0,0,0,0,0,0,0,0,0,0,0,0,0,0,0,0,0,0,0,0,0,0,0,0,0,
0,0,0,0,0,0,0,0,0,0,0,0,0,0,0,0,0,0,0,0,0,0,0,0,0,0,0,0,0,0,
0,0,0,0,0,0,0,0,0,0,0,0,0,0,0,0,0,0,0,0,0,0,0,0,0,0,0,0,0,0,
0,0,0,0,0,0,0,0,0,0,0,0,0,0,0,0,0,0,0,0,0,0,0,0,0,0,0,0,0,0,
0,0,0,0,0,0,0,0,0,0,0,0,0,0,0,0,0,0,0,0,0,0,0,0,0,0,0,0,0,0,
0,0,0,0,0,0,0,0,0,0,0,0,0,0,0,0,0,0,0,0,0,0,0,0,0,0,0,0,0,0,
0,0,0,0,0,0,0,0,0,0,0,0,0,0,0,0,0,0,0,0,0,0,0,0,0,0,0,0,0,0,
0,0,0,0,0,0,0,0,0,0,0,0,0,0,0,0,0,0,0,0,0,0,0,0,0,0,0,0,0,0,
0,0,0,0,0,0,0,0,0,0,0,0,0,0,0,0,0,0,0,0,0,752,753,0,0,0,0,0,0,0,
0,0,0,0,0,0,0,0,0,0,0,0,0,0,0,0,0,0,0,0,0,782,783,0,0,0,0,0,0,0,
0,0,0,0,0,0,0,0,0,0,0,0,0,0,0,0,0,0,0,0,0,0,0,0,0,0,0,0,0,0,
0,0,0,0,0,0,0,0,0,0,0,0,0,0,0,0,0,0,0,0,0,0,0,0,0,0,0,0,0,0,
0,0,0,0,0,0,0,0,0,0,0,0,0,0,0,0,0,0,0,0,0,0,0,0,0,0,0,0,0,0
</data>
 </layer>
 <layer id="6" name="Transparent" width="30" height="30">
  <data encoding="csv">
0,0,0,0,0,0,0,0,0,0,0,0,0,0,0,0,0,0,0,0,0,0,0,0,0,0,0,0,0,0,
0,0,0,0,0,0,0,0,0,0,0,0,0,0,0,0,0,0,0,0,0,0,0,0,0,0,0,0,0,0,
0,0,0,0,0,0,572,573,574,0,0,0,0,0,572,573,574,0,0,0,0,0,0,0,0,0,0,0,0,0,
0,0,0,0,0,0,602,603,604,0,575,576,577,0,602,603,604,0,0,0,575,576,577,0,572,573,574,0,0,0,
0,0,0,572,573,574,632,633,634,0,605,606,607,0,632,633,634,0,0,0,605,606,607,0,602,603,604,0,0,0,
0,0,0,602,603,604,662,663,664,0,635,636,637,0,662,663,664,579,0,0,635,636,637,0,632,633,634,0,0,0,
0,0,0,632,633,634,0,0,0,0,665,666,667,0,0,0,608,609,610,0,665,666,667,0,662,663,664,0,0,0,
0,0,0,662,663,664,0,0,0,0,0,0,0,0,0,0,638,639,640,0,0,0,0,0,0,0,0,0,0,0,
0,0,0,0,0,575,576,577,0,0,0,0,0,0,0,0,668,669,670,0,572,573,574,0,575,576,577,0,0,0,
0,0,0,0,0,605,606,607,0,0,0,0,0,0,0,0,698,699,700,0,602,603,604,0,605,606,607,0,0,0,
0,0,0,0,0,635,636,637,0,0,0,0,572,573,574,0,0,0,0,0,632,633,634,0,635,636,637,0,0,0,
0,0,0,0,0,665,666,667,0,0,0,0,602,603,604,0,0,0,0,0,662,663,664,0,665,666,667,0,0,0,
0,0,572,573,574,0,0,579,0,0,0,0,632,633,634,608,609,610,0,0,579,0,0,0,0,0,0,0,0,0,
0,0,602,603,604,0,608,609,610,0,0,0,662,663,664,638,639,640,0,608,609,610,0,0,0,0,0,0,0,0,
0,0,632,633,634,0,638,639,640,0,0,0,0,0,0,668,669,670,0,638,639,640,0,0,0,0,0,0,0,0,
0,0,662,663,664,0,668,669,670,0,0,0,0,0,0,0,699,0,0,668,669,670,0,0,572,573,574,0,0,0,
0,0,0,0,0,0,698,699,700,0,0,0,0,0,0,0,0,0,0,698,699,700,0,0,602,603,604,0,0,0,
0,0,0,0,0,0,0,0,0,0,0,0,0,0,0,0,0,0,0,0,0,575,576,577,632,633,634,0,0,0,
0,0,0,572,573,574,0,0,0,0,0,0,0,0,0,0,0,0,0,0,0,605,606,607,662,663,664,0,0,0,
0,0,0,602,603,604,0,0,572,573,574,0,0,0,0,0,0,0,0,0,0,635,636,637,0,0,0,0,0,0,
0,0,0,632,633,634,0,0,602,603,604,0,0,0,0,0,0,0,572,573,574,665,666,667,0,0,0,0,0,0,
0,0,0,662,663,664,0,0,632,633,634,0,0,0,0,0,0,0,602,603,604,0,0,0,0,0,0,0,0,0,
0,0,0,0,575,576,577,578,662,663,664,0,0,0,0,0,0,0,632,633,634,0,0,0,0,0,0,0,0,0,
0,0,0,0,605,606,607,608,609,610,0,0,0,0,0,575,576,577,662,663,664,0,0,0,575,576,577,0,0,0,
0,0,0,0,635,636,637,638,639,640,0,0,0,0,0,605,606,607,0,0,0,0,0,0,605,606,607,0,0,0,
0,0,0,0,665,666,667,668,669,670,0,0,0,0,0,635,636,637,0,0,0,0,0,0,635,636,637,0,0,0,
0,0,0,0,0,0,0,698,699,700,0,0,0,0,0,665,666,667,0,0,0,0,0,0,665,666,667,0,0,0,
0,0,0,0,0,0,0,0,0,0,0,0,0,0,0,0,0,0,0,0,0,0,0,0,0,0,0,0,0,0,
0,0,0,0,0,0,0,0,0,0,0,0,0,0,0,0,0,0,0,0,0,0,0,0,0,0,0,0,0,0,
0,0,0,0,0,0,0,0,0,0,0,0,0,0,0,0,0,0,0,0,0,0,0,0,0,0,0,0,0,0
</data>
 </layer>
 <layer id="11" name="Door_closed" width="30" height="30">
  <data encoding="csv">
0,0,0,0,0,0,0,0,0,0,0,0,0,0,0,0,0,0,0,0,0,0,0,0,0,0,0,0,0,0,
0,0,0,0,0,0,0,0,0,0,0,0,0,729,672,730,0,0,0,0,0,0,0,0,0,0,0,0,0,0,
0,0,0,0,0,0,0,0,0,0,0,0,0,0,0,0,0,0,0,0,0,0,0,0,0,0,0,0,0,0,
0,0,0,0,0,0,0,0,0,0,0,0,0,0,0,0,0,0,0,0,0,0,0,0,0,0,0,0,0,0,
0,0,0,0,0,0,0,0,0,0,0,0,0,0,0,0,0,0,0,0,0,0,0,0,0,0,0,0,0,0,
0,0,0,0,0,0,0,0,0,0,0,0,0,0,0,0,0,0,0,0,0,0,0,0,0,0,0,0,0,0,
0,0,0,0,0,0,0,0,0,0,0,0,0,0,0,0,0,0,0,0,0,0,0,0,0,0,0,0,0,0,
0,0,0,0,0,0,0,0,0,0,0,0,0,0,0,0,0,0,0,0,0,0,0,0,0,0,0,0,0,0,
0,0,0,0,0,0,0,0,0,0,0,0,0,0,0,0,0,0,0,0,0,0,0,0,0,0,0,0,0,0,
0,0,0,0,0,0,0,0,0,0,0,0,0,0,0,0,0,0,0,0,0,0,0,0,0,0,0,0,0,0,
0,0,0,0,0,0,0,0,0,0,0,0,0,0,0,0,0,0,0,0,0,0,0,0,0,0,0,0,0,0,
0,0,0,0,0,0,0,0,0,0,0,0,0,0,0,0,0,0,0,0,0,0,0,0,0,0,0,0,0,0,
0,0,0,0,0,0,0,0,0,0,0,0,0,0,0,0,0,0,0,0,0,0,0,0,0,0,0,0,0,0,
0,0,0,0,0,0,0,0,0,0,0,0,0,0,0,0,0,0,0,0,0,0,0,0,0,0,0,0,0,0,
0,0,0,0,0,0,0,0,0,0,0,0,0,0,0,0,0,0,0,0,0,0,0,0,0,0,0,0,0,0,
0,0,0,0,0,0,0,0,0,0,0,0,0,0,0,0,0,0,0,0,0,0,0,0,0,0,0,0,0,0,
0,0,0,0,0,0,0,0,0,0,0,0,0,0,0,0,0,0,0,0,0,0,0,0,0,0,0,0,0,0,
0,0,0,0,0,0,0,0,0,0,0,0,0,0,0,0,0,0,0,0,0,0,0,0,0,0,0,0,0,0,
0,0,0,0,0,0,0,0,0,0,0,0,0,0,0,0,0,0,0,0,0,0,0,0,0,0,0,0,0,0,
0,0,0,0,0,0,0,0,0,0,0,0,0,0,0,0,0,0,0,0,0,0,0,0,0,0,0,0,0,0,
0,0,0,0,0,0,0,0,0,0,0,0,0,0,0,0,0,0,0,0,0,0,0,0,0,0,0,0,0,0,
0,0,0,0,0,0,0,0,0,0,0,0,0,0,0,0,0,0,0,0,0,0,0,0,0,0,0,0,0,0,
0,0,0,0,0,0,0,0,0,0,0,0,0,0,0,0,0,0,0,0,0,0,0,0,0,0,0,0,0,0,
0,0,0,0,0,0,0,0,0,0,0,0,0,0,0,0,0,0,0,0,0,0,0,0,0,0,0,0,0,0,
0,0,0,0,0,0,0,0,0,0,0,0,0,0,0,0,0,0,0,0,0,0,0,0,0,0,0,0,0,0,
0,0,0,0,0,0,0,0,0,0,0,0,0,0,0,0,0,0,0,0,0,0,0,0,0,0,0,0,0,0,
0,0,0,0,0,0,0,0,0,0,0,0,0,0,0,0,0,0,0,0,0,0,0,0,0,0,0,0,0,0,
0,0,0,0,0,0,0,0,0,0,0,0,0,0,0,0,0,0,0,0,0,0,0,0,0,0,0,0,0,0,
0,0,0,0,0,0,0,0,0,0,0,0,0,0,0,0,0,0,0,0,0,0,0,0,0,0,0,0,0,0,
0,0,0,0,0,0,0,0,0,0,0,0,0,0,0,0,0,0,0,0,0,0,0,0,0,0,0,0,0,0
</data>
 </layer>
 <layer id="12" name="Door_open" width="30" height="30">
  <data encoding="csv">
0,0,0,0,0,0,0,0,0,0,0,0,0,0,0,0,0,0,0,0,0,0,0,0,0,0,0,0,0,0,
0,0,0,0,0,0,0,0,0,0,0,0,0,760,0,760,0,0,0,0,0,0,0,0,0,0,0,0,0,0,
0,0,0,0,0,0,0,0,0,0,0,0,0,0,0,0,0,0,0,0,0,0,0,0,0,0,0,0,0,0,
0,0,0,0,0,0,0,0,0,0,0,0,0,0,0,0,0,0,0,0,0,0,0,0,0,0,0,0,0,0,
0,0,0,0,0,0,0,0,0,0,0,0,0,0,0,0,0,0,0,0,0,0,0,0,0,0,0,0,0,0,
0,0,0,0,0,0,0,0,0,0,0,0,0,0,0,0,0,0,0,0,0,0,0,0,0,0,0,0,0,0,
0,0,0,0,0,0,0,0,0,0,0,0,0,0,0,0,0,0,0,0,0,0,0,0,0,0,0,0,0,0,
0,0,0,0,0,0,0,0,0,0,0,0,0,0,0,0,0,0,0,0,0,0,0,0,0,0,0,0,0,0,
0,0,0,0,0,0,0,0,0,0,0,0,0,0,0,0,0,0,0,0,0,0,0,0,0,0,0,0,0,0,
0,0,0,0,0,0,0,0,0,0,0,0,0,0,0,0,0,0,0,0,0,0,0,0,0,0,0,0,0,0,
0,0,0,0,0,0,0,0,0,0,0,0,0,0,0,0,0,0,0,0,0,0,0,0,0,0,0,0,0,0,
0,0,0,0,0,0,0,0,0,0,0,0,0,0,0,0,0,0,0,0,0,0,0,0,0,0,0,0,0,0,
0,0,0,0,0,0,0,0,0,0,0,0,0,0,0,0,0,0,0,0,0,0,0,0,0,0,0,0,0,0,
0,0,0,0,0,0,0,0,0,0,0,0,0,0,0,0,0,0,0,0,0,0,0,0,0,0,0,0,0,0,
0,0,0,0,0,0,0,0,0,0,0,0,0,0,0,0,0,0,0,0,0,0,0,0,0,0,0,0,0,0,
0,0,0,0,0,0,0,0,0,0,0,0,0,0,0,0,0,0,0,0,0,0,0,0,0,0,0,0,0,0,
0,0,0,0,0,0,0,0,0,0,0,0,0,0,0,0,0,0,0,0,0,0,0,0,0,0,0,0,0,0,
0,0,0,0,0,0,0,0,0,0,0,0,0,0,0,0,0,0,0,0,0,0,0,0,0,0,0,0,0,0,
0,0,0,0,0,0,0,0,0,0,0,0,0,0,0,0,0,0,0,0,0,0,0,0,0,0,0,0,0,0,
0,0,0,0,0,0,0,0,0,0,0,0,0,0,0,0,0,0,0,0,0,0,0,0,0,0,0,0,0,0,
0,0,0,0,0,0,0,0,0,0,0,0,0,0,0,0,0,0,0,0,0,0,0,0,0,0,0,0,0,0,
0,0,0,0,0,0,0,0,0,0,0,0,0,0,0,0,0,0,0,0,0,0,0,0,0,0,0,0,0,0,
0,0,0,0,0,0,0,0,0,0,0,0,0,0,0,0,0,0,0,0,0,0,0,0,0,0,0,0,0,0,
0,0,0,0,0,0,0,0,0,0,0,0,0,0,0,0,0,0,0,0,0,0,0,0,0,0,0,0,0,0,
0,0,0,0,0,0,0,0,0,0,0,0,0,0,0,0,0,0,0,0,0,0,0,0,0,0,0,0,0,0,
0,0,0,0,0,0,0,0,0,0,0,0,0,0,0,0,0,0,0,0,0,0,0,0,0,0,0,0,0,0,
0,0,0,0,0,0,0,0,0,0,0,0,0,0,0,0,0,0,0,0,0,0,0,0,0,0,0,0,0,0,
0,0,0,0,0,0,0,0,0,0,0,0,0,0,0,0,0,0,0,0,0,0,0,0,0,0,0,0,0,0,
0,0,0,0,0,0,0,0,0,0,0,0,0,0,0,0,0,0,0,0,0,0,0,0,0,0,0,0,0,0,
0,0,0,0,0,0,0,0,0,0,0,0,0,0,0,0,0,0,0,0,0,0,0,0,0,0,0,0,0,0
</data>
 </layer>
 <layer id="10" name="Enemies_spawn" width="30" height="30" visible="0">
  <data encoding="csv">
0,0,0,0,0,0,0,0,0,0,0,0,0,0,0,0,0,0,0,0,0,0,0,0,0,0,0,0,0,0,
0,0,0,0,0,0,0,0,0,0,0,0,0,0,0,0,0,0,0,0,0,0,0,0,0,0,0,0,0,0,
0,0,0,0,0,0,0,0,0,0,0,0,0,0,0,0,0,0,0,0,0,0,0,0,0,0,0,0,0,0,
0,0,0,409,409,409,409,409,409,409,409,409,409,409,409,409,409,409,409,409,409,409,409,409,409,409,409,0,0,0,
0,0,0,409,409,409,0,0,0,409,409,409,409,409,0,0,0,409,409,409,409,409,409,409,409,409,409,0,0,0,
0,0,0,409,409,409,0,0,0,409,0,0,0,409,0,0,0,409,409,409,0,0,0,409,0,0,0,0,0,0,
0,0,0,0,0,0,0,0,0,409,0,0,0,409,0,0,0,409,409,409,0,0,0,409,0,0,0,0,0,0,
0,0,0,0,0,0,409,409,409,409,0,0,0,409,409,409,409,409,409,409,0,0,0,409,0,0,0,0,0,0,
0,0,0,0,0,0,409,409,409,409,409,409,409,409,409,409,0,0,0,409,409,409,409,409,409,409,409,0,0,0,
0,0,0,409,409,409,409,409,409,409,409,409,409,409,409,409,0,0,0,409,409,409,409,409,409,409,409,0,0,0,
0,0,0,409,409,0,0,0,409,409,0,0,0,0,0,0,0,0,0,0,0,0,0,0,0,0,0,0,0,0,
0,0,0,409,409,0,0,0,409,409,0,0,0,0,0,0,0,0,0,0,0,0,0,409,0,0,0,0,0,0,
0,0,0,409,409,0,0,0,409,409,0,0,0,0,0,0,0,0,0,0,0,0,0,0,0,0,0,0,0,0,
0,0,0,409,409,409,409,409,409,409,0,0,0,0,0,0,0,0,0,0,409,409,409,0,0,0,0,0,0,0,
0,0,0,0,0,409,409,409,409,409,0,0,0,0,0,0,0,0,0,0,409,409,409,0,0,0,0,0,0,0,
0,0,0,0,0,409,0,0,0,409,0,0,0,0,0,0,0,0,0,0,0,0,409,409,409,409,409,0,0,0,
0,0,0,0,0,0,0,0,0,409,0,0,0,0,0,0,0,0,0,0,0,0,409,409,409,409,409,0,0,0,
0,0,0,0,0,0,0,0,0,409,0,0,0,0,0,0,0,0,0,0,0,0,409,409,0,0,0,0,0,0,
0,0,0,0,0,0,409,409,409,409,0,0,0,0,0,0,0,0,0,0,409,409,409,409,0,0,0,0,0,0,
0,0,0,409,409,409,0,0,0,0,0,0,0,0,0,409,0,0,0,0,0,0,0,0,0,0,0,0,0,0,
0,0,0,0,0,0,409,409,409,409,409,409,409,409,409,409,409,409,409,409,409,0,0,0,409,409,409,0,0,0,
0,0,0,0,0,0,409,409,0,0,0,409,409,409,0,0,0,409,409,409,409,0,0,0,409,409,409,0,0,0,
0,0,0,0,0,0,409,409,0,0,0,409,0,0,0,0,0,409,0,0,0,409,409,409,409,409,409,0,0,0,
0,0,0,409,409,409,409,409,0,0,0,409,0,0,0,0,409,409,0,0,0,409,409,409,409,409,409,0,0,0,
0,0,0,409,0,0,0,409,409,409,409,409,0,0,409,409,409,409,0,0,0,0,0,0,409,409,409,0,0,0,
0,0,0,409,0,0,0,0,0,0,409,0,0,0,409,0,0,0,409,409,0,0,0,0,0,0,0,0,0,0,
0,0,0,409,0,0,0,0,0,0,409,409,409,409,409,0,0,0,409,409,0,0,0,0,0,0,0,0,0,0,
0,0,0,0,0,0,0,0,0,0,0,0,0,0,0,0,0,0,0,0,0,0,0,0,0,0,0,0,0,0,
0,0,0,0,0,0,0,0,0,0,0,0,0,0,0,0,0,0,0,0,0,0,0,0,0,0,0,0,0,0,
0,0,0,0,0,0,0,0,0,0,0,0,0,0,0,0,0,0,0,0,0,0,0,0,0,0,0,0,0,0
</data>
 </layer>
 <layer id="9" name="Player_spawn" width="30" height="30">
  <data encoding="csv">
0,0,0,0,0,0,0,0,0,0,0,0,0,0,0,0,0,0,0,0,0,0,0,0,0,0,0,0,0,0,
0,0,0,0,0,0,0,0,0,0,0,0,0,0,0,0,0,0,0,0,0,0,0,0,0,0,0,0,0,0,
0,0,0,0,0,0,0,0,0,0,0,0,0,0,0,0,0,0,0,0,0,0,0,0,0,0,0,0,0,0,
0,0,0,0,0,0,0,0,0,0,0,0,0,0,0,0,0,0,0,0,0,0,0,0,0,0,0,0,0,0,
0,0,0,0,0,0,0,0,0,0,0,0,0,0,0,0,0,0,0,0,0,0,0,0,0,0,0,0,0,0,
0,0,0,0,0,0,653,653,0,0,0,0,0,0,0,0,0,0,0,0,0,0,653,653,0,0,0,0,0,0,
0,0,0,0,0,0,653,653,0,0,0,0,0,0,0,0,0,0,0,0,0,0,653,653,0,0,0,0,0,0,
0,0,0,0,0,0,0,0,0,0,0,0,0,0,0,0,0,0,0,0,0,0,0,0,0,0,0,0,0,0,
0,0,0,0,0,0,0,0,0,0,0,0,0,0,0,0,0,0,0,0,0,0,0,0,0,0,0,0,0,0,
0,0,0,0,0,0,0,0,0,0,0,0,0,0,0,0,0,0,0,0,0,0,0,0,0,0,0,0,0,0,
0,0,0,0,0,0,0,0,0,0,0,0,0,0,0,0,0,0,0,0,0,0,0,0,0,0,0,0,0,0,
0,0,0,0,0,0,0,0,0,0,0,0,0,0,0,0,0,0,0,0,0,0,0,0,0,0,0,0,0,0,
0,0,0,0,0,0,0,0,0,0,0,0,0,0,0,0,0,0,0,0,0,0,0,0,0,0,0,0,0,0,
0,0,0,0,0,0,0,0,0,0,0,0,0,0,0,0,0,0,0,0,0,0,0,0,0,0,0,0,0,0,
0,0,0,0,0,0,0,0,0,0,0,0,0,0,0,0,0,0,0,0,0,0,0,0,0,0,0,0,0,0,
0,0,0,0,0,0,0,0,0,0,0,0,0,0,0,0,0,0,0,0,0,0,0,0,0,0,0,0,0,0,
0,0,0,0,0,0,0,0,0,0,0,0,0,0,0,0,0,0,0,0,0,0,0,0,0,0,0,0,0,0,
0,0,0,0,0,0,0,0,0,0,0,0,0,0,0,0,0,0,0,0,0,0,0,0,0,0,0,0,0,0,
0,0,0,0,0,0,0,0,0,0,0,0,0,0,0,0,0,0,0,0,0,0,0,0,0,0,0,0,0,0,
0,0,0,0,0,0,0,0,0,0,0,0,0,0,0,0,0,0,0,0,0,0,0,0,0,0,0,0,0,0,
0,0,0,0,0,0,0,0,0,0,0,0,0,0,0,0,0,0,0,0,0,0,0,0,0,0,0,0,0,0,
0,0,0,0,0,0,0,0,0,0,0,0,0,0,0,0,0,0,0,0,0,0,0,0,0,0,0,0,0,0,
0,0,0,0,0,0,0,0,0,0,0,0,0,0,0,0,0,0,0,0,0,0,0,0,0,0,0,0,0,0,
0,0,0,0,0,0,653,653,0,0,0,0,0,0,0,0,0,0,0,0,0,0,653,653,0,0,0,0,0,0,
0,0,0,0,0,0,653,653,0,0,0,0,0,0,0,0,0,0,0,0,0,0,653,653,0,0,0,0,0,0,
0,0,0,0,0,0,0,0,0,0,0,0,0,0,0,0,0,0,0,0,0,0,0,0,0,0,0,0,0,0,
0,0,0,0,0,0,0,0,0,0,0,0,0,0,0,0,0,0,0,0,0,0,0,0,0,0,0,0,0,0,
0,0,0,0,0,0,0,0,0,0,0,0,0,0,0,0,0,0,0,0,0,0,0,0,0,0,0,0,0,0,
0,0,0,0,0,0,0,0,0,0,0,0,0,0,0,0,0,0,0,0,0,0,0,0,0,0,0,0,0,0,
0,0,0,0,0,0,0,0,0,0,0,0,0,0,0,0,0,0,0,0,0,0,0,0,0,0,0,0,0,0
</data>
 </layer>
</map>
